src/assets/svg/icons/fa/nuevos/classic/light/square-fragile classic light.svg

<svg xmlns="http://www.w3.org/2000/svg" viewBox="0 0 448 512"><!--! Font Awesome Pro 6.4.0 by @fontawesome - https://fontawesome.com License - https://fontawesome.com/license (Commercial License) Copyright 2023 Fonticons, Inc. --><path d="M64 64C46.3 64 32 78.3 32 96V416c0 17.7 14.3 32 32 32H384c17.7 0 32-14.3 32-32V96c0-17.7-14.3-32-32-32H64zM0 96C0 60.7 28.7 32 64 32H384c35.3 0 64 28.7 64 64V416c0 35.3-28.7 64-64 64H64c-35.3 0-64-28.7-64-64V96zm144 32v80c0 44.2 35.8 80 80 80s80-35.8 80-80V128H230.6l20.7 20.7c3.4 3.4 5.1 8.1 4.6 12.9s-3.1 9.1-7 11.7l-30.2 20.1 31.5 26.3c6.8 5.7 7.7 15.7 2 22.5s-15.7 7.7-22.5 2l-48-40c-3.9-3.2-6-8.1-5.7-13.1s2.9-9.7 7.1-12.5l31.8-21.2L185.4 128H144zm-1.1-32H305.1c17.1 0 30.9 13.8 30.9 30.9V208c0 56.4-41.7 103.1-96 110.9V384h32c8.8 0 16 7.2 16 16s-7.2 16-16 16H176c-8.8 0-16-7.2-16-16s7.2-16 16-16h32V318.9c-54.3-7.8-96-54.4-96-110.9V126.9c0-17.1 13.8-30.9 30.9-30.9z"/></svg>

<svg xmlns="http://www.w3.org/2000/svg" viewBox="0 0 448 512"><path d="M305.1 96C322.2 96 336 109.8 336 126.9V208C336 264.4 294.3 311.1 240 318.9V384H272C280.8 384 288 391.2 288 400C288 408.8 280.8 416 272 416H176C167.2 416 160 408.8 160 400C160 391.2 167.2 384 176 384H208V318.9C153.7 311.1 112 264.4 112 208V126.9C112 109.8 125.8 96 142.9 96H305.1zM144 128V208C144 252.2 179.8 288 224 288C268.2 288 304 252.2 304 208V128H230.6L251.3 148.7C254.7 152.1 256.4 156.8 255.9 161.6C255.4 166.3 252.9 170.7 248.9 173.3L218.7 193.4L250.2 219.7C257 225.4 257.9 235.5 252.3 242.2C246.6 249 236.5 249.9 229.8 244.3L181.8 204.3C177.9 201.1 175.8 196.2 176 191.1C176.3 186.1 178.9 181.5 183.1 178.7L214.9 157.5L185.4 128H144zM0 96C0 60.65 28.65 32 64 32H384C419.3 32 448 60.65 448 96V416C448 451.3 419.3 480 384 480H64C28.65 480 0 451.3 0 416V96zM32 96V416C32 433.7 46.33 448 64 448H384C401.7 448 416 433.7 416 416V96C416 78.33 401.7 64 384 64H64C46.33 64 32 78.33 32 96z"/></svg>
